src/assets/images/api/instant/icon1.svg

<svg width="48" height="49" viewBox="0 0 48 49" fill="none" xmlns="http://www.w3.org/2000/svg">
<rect width="48" height="48.0022" rx="16" transform="matrix(1 0 0 -1 0 48.0044)" fill="#8DCAF8"/>
<path d="M14.6572 32.3141C13.6812 32.3141 12.7932 32.0901 11.9932 31.6421C11.1932 31.1861 10.5012 30.5581 9.91719 29.7581C9.34119 28.9581 8.89719 28.0341 8.58519 26.9861C8.27319 25.9301 8.11719 24.8021 8.11719 23.6021C8.11719 22.4021 8.27319 21.2781 8.58519 20.2301C8.89719 19.1741 9.34119 18.2461 9.91719 17.4461C10.5012 16.6461 11.1932 16.0221 11.9932 15.5741C12.7932 15.1181 13.6812 14.8901 14.6572 14.8901C15.6332 14.8901 16.5212 15.1181 17.3212 15.5741C18.1212 16.0221 18.8052 16.6461 19.3732 17.4461C19.9492 18.2461 20.3932 19.1741 20.7052 20.2301C21.0252 21.2781 21.1852 22.4021 21.1852 23.6021C21.1852 24.8021 21.0252 25.9301 20.7052 26.9861C20.3932 28.0341 19.9492 28.9581 19.3732 29.7581C18.8052 30.5581 18.1212 31.1861 17.3212 31.6421C16.5212 32.0901 15.6332 32.3141 14.6572 32.3141ZM14.6572 29.3861C15.5132 29.3861 16.2212 29.1141 16.7812 28.5701C17.3412 28.0261 17.7572 27.3141 18.0292 26.4341C18.3012 25.5541 18.4372 24.6101 18.4372 23.6021C18.4372 22.5381 18.2932 21.5701 18.0052 20.6981C17.7172 19.8181 17.2932 19.1181 16.7332 18.5981C16.1732 18.0781 15.4812 17.8181 14.6572 17.8181C14.0092 17.8181 13.4452 17.9781 12.9652 18.2981C12.4932 18.6101 12.1012 19.0381 11.7892 19.5821C11.4772 20.1261 11.2452 20.7461 11.0932 21.4421C10.9412 22.1301 10.8652 22.8501 10.8652 23.6021C10.8652 24.6021 11.0012 25.5461 11.2732 26.4341C11.5532 27.3141 11.9732 28.0261 12.5332 28.5701C13.1012 29.1141 13.8092 29.3861 14.6572 29.3861Z" fill="#0061A8"/>
<path d="M24.413 32.0021L34.109 15.2021H37.493L27.797 32.0021H24.413ZM26.477 22.4861C25.821 22.4861 25.217 22.3301 24.665 22.0181C24.121 21.6981 23.685 21.2661 23.357 20.7221C23.029 20.1781 22.865 19.5701 22.865 18.8981C22.865 18.2101 23.029 17.5941 23.357 17.0501C23.693 16.5061 24.133 16.0781 24.677 15.7661C25.229 15.4541 25.829 15.2981 26.477 15.2981C27.133 15.2981 27.733 15.4581 28.277 15.7781C28.821 16.0981 29.253 16.5301 29.573 17.0741C29.901 17.6181 30.065 18.2261 30.065 18.8981C30.065 19.5781 29.897 20.1901 29.561 20.7341C29.233 21.2781 28.797 21.7061 28.253 22.0181C27.709 22.3301 27.117 22.4861 26.477 22.4861ZM26.477 20.4821C26.909 20.4821 27.281 20.3301 27.593 20.0261C27.905 19.7141 28.061 19.3381 28.061 18.8981C28.061 18.4501 27.905 18.0741 27.593 17.7701C27.281 17.4661 26.909 17.3141 26.477 17.3141C26.037 17.3141 25.657 17.4661 25.337 17.7701C25.025 18.0741 24.869 18.4501 24.869 18.8981C24.869 19.3381 25.025 19.7141 25.337 20.0261C25.657 20.3301 26.037 20.4821 26.477 20.4821ZM35.429 31.9181C34.765 31.9181 34.161 31.7541 33.617 31.4261C33.073 31.0901 32.641 30.6501 32.321 30.1061C32.001 29.5541 31.841 28.9621 31.841 28.3301C31.841 27.6421 32.005 27.0261 32.333 26.4821C32.669 25.9381 33.109 25.5101 33.653 25.1981C34.205 24.8781 34.797 24.7181 35.429 24.7181C36.117 24.7181 36.733 24.8861 37.277 25.2221C37.821 25.5581 38.249 26.0021 38.561 26.5541C38.881 27.0981 39.041 27.6901 39.041 28.3301C39.041 28.9861 38.877 29.5861 38.549 30.1301C38.229 30.6741 37.793 31.1101 37.241 31.4381C36.697 31.7581 36.093 31.9181 35.429 31.9181ZM35.429 29.9141C35.877 29.9141 36.257 29.7581 36.569 29.4461C36.881 29.1341 37.037 28.7621 37.037 28.3301C37.037 27.8821 36.881 27.5021 36.569 27.1901C36.257 26.8781 35.877 26.7221 35.429 26.7221C34.997 26.7221 34.625 26.8781 34.313 27.1901C34.001 27.5021 33.845 27.8821 33.845 28.3301C33.845 28.7621 34.001 29.1341 34.313 29.4461C34.625 29.7581 34.997 29.9141 35.429 29.9141Z" fill="#0061A8"/>
</svg>

<svg width="48" height="49" fill="none" xmlns="http://www.w3.org/2000/svg"><rect width="48" height="48.002" rx="16" transform="matrix(1 0 0 -1 0 48.004)" fill="#8DCAF8"/><path d="M14.657 32.314c-.976 0-1.864-.224-2.664-.672a6.624 6.624 0 0 1-2.076-1.884c-.576-.8-1.02-1.724-1.332-2.772a11.888 11.888 0 0 1-.468-3.384c0-1.2.156-2.324.468-3.372.312-1.056.756-1.984 1.332-2.784.584-.8 1.276-1.424 2.076-1.872.8-.456 1.688-.684 2.664-.684.976 0 1.864.228 2.664.684a6.252 6.252 0 0 1 2.052 1.872c.576.8 1.02 1.728 1.332 2.784.32 1.048.48 2.172.48 3.372 0 1.2-.16 2.328-.48 3.384-.312 1.048-.756 1.972-1.332 2.772a6.38 6.38 0 0 1-2.052 1.884c-.8.448-1.688.672-2.664.672zm0-2.928c.856 0 1.564-.272 2.124-.816.56-.544.976-1.256 1.248-2.136.272-.88.408-1.824.408-2.832 0-1.064-.144-2.032-.432-2.904-.288-.88-.712-1.58-1.272-2.1s-1.252-.78-2.076-.78c-.648 0-1.212.16-1.692.48-.472.312-.864.74-1.176 1.284a6.504 6.504 0 0 0-.696 1.86 9.987 9.987 0 0 0-.228 2.16c0 1 .136 1.944.408 2.832.28.88.7 1.592 1.26 2.136.568.544 1.276.816 2.124.816zM24.413 32.002l9.696-16.8h3.384l-9.696 16.8h-3.384zm2.064-9.516a3.62 3.62 0 0 1-1.812-.468 3.69 3.69 0 0 1-1.308-1.296 3.464 3.464 0 0 1-.492-1.824c0-.688.164-1.304.492-1.848a3.689 3.689 0 0 1 1.32-1.284 3.597 3.597 0 0 1 1.8-.468c.656 0 1.256.16 1.8.48.544.32.976.752 1.296 1.296.328.544.492 1.152.492 1.824 0 .68-.168 1.292-.504 1.836a3.593 3.593 0 0 1-1.308 1.284 3.508 3.508 0 0 1-1.776.468zm0-2.004c.432 0 .804-.152 1.116-.456.312-.312.468-.688.468-1.128 0-.448-.156-.824-.468-1.128a1.544 1.544 0 0 0-1.116-.456c-.44 0-.82.152-1.14.456-.312.304-.468.68-.468 1.128 0 .44.156.816.468 1.128.32.304.7.456 1.14.456zm8.952 11.436a3.442 3.442 0 0 1-1.812-.492 3.79 3.79 0 0 1-1.296-1.32 3.483 3.483 0 0 1-.48-1.776c0-.688.164-1.304.492-1.848a3.689 3.689 0 0 1 1.32-1.284 3.483 3.483 0 0 1 1.776-.48c.688 0 1.304.168 1.848.504.544.336.972.78 1.284 1.332.32.544.48 1.136.48 1.776a3.42 3.42 0 0 1-.492 1.8 3.66 3.66 0 0 1-1.308 1.308c-.544.32-1.148.48-1.812.48zm0-2.004c.448 0 .828-.156 1.14-.468.312-.312.468-.684.468-1.116 0-.448-.156-.828-.468-1.14a1.551 1.551 0 0 0-1.14-.468c-.432 0-.804.156-1.116.468a1.551 1.551 0 0 0-.468 1.14c0 .432.156.804.468 1.116.312.312.684.468 1.116.468z" fill="#0061A8"/></svg>
